X:1
T:Practica 5
M:4/4
L:1/4
Q:1/2=60
V:DER
%%MIDI program 0
K:C clef=treble
GEDC | GEDC | FEDC | CDEG 
GCDC | GCDC | GCDC | GCDC
CDEG | CDEG | CDEF | CDEG 
GDEC | GDEC | GDEC | GDEC 
V:IZQ
%%MIDI program 1
K:C clef=bass
 C,4 | G,,4| A,,4 | F,,4 
 C,4 | G,,4| A,,4 | F,,4 
 C,4 | G,,4| A,,4 | F,,4 
 C,4 | G,,4| A,,4 | F,,4 
